flaticon/medical/mirror.svg

<svg xmlns="http://www.w3.org/2000/svg" width="32" height="32" viewBox="0 0 24 24">
    <path d="M 20.390625 0 C 18.40625 0 16.792969 1.617188 16.792969 3.601562 C 16.792969 4.449219 17.089844 5.226562 17.582031 5.84375 L 15.074219 8.351562 L 14.105469 8.128906 C 13.667969 8.027344 13.214844 8.15625 12.894531 8.476562 L 0.554688 20.816406 C 0.203125 21.167969 0.0078125 21.636719 0.0078125 22.136719 C 0.0078125 22.632812 0.203125 23.101562 0.554688 23.453125 C 0.917969 23.816406 1.394531 24 1.875 24 C 2.351562 24 2.828125 23.816406 3.191406 23.453125 L 16.523438 10.125 C 16.757812 9.886719 16.847656 9.542969 16.753906 9.222656 C 16.664062 8.902344 16.40625 8.660156 16.082031 8.585938 L 15.992188 8.5625 L 18.148438 6.410156 C 18.761719 6.902344 19.542969 7.199219 20.390625 7.199219 C 22.378906 7.199219 23.992188 5.585938 23.992188 3.601562 C 23.992188 1.617188 22.378906 0 20.390625 0 Z M 5.367188 20.148438 L 4.425781 18.078125 L 5.375 17.128906 L 6.316406 19.199219 Z M 3.8125 21.703125 L 2.871094 19.632812 L 3.820312 18.683594 L 4.761719 20.753906 Z M 2.625 22.890625 C 2.210938 23.304688 1.535156 23.304688 1.121094 22.890625 C 0.917969 22.6875 0.808594 22.421875 0.808594 22.136719 C 0.808594 21.851562 0.917969 21.582031 1.121094 21.382812 L 2.265625 20.234375 L 3.207031 22.308594 Z M 15.957031 9.558594 L 6.921875 18.59375 L 5.980469 16.523438 L 13.460938 9.039062 C 13.554688 8.945312 13.683594 8.894531 13.8125 8.894531 C 13.851562 8.894531 13.886719 8.898438 13.925781 8.90625 L 15.027344 9.164062 C 15.078125 9.1875 15.132812 9.199219 15.191406 9.199219 L 15.902344 9.363281 C 15.957031 9.375 15.976562 9.414062 15.988281 9.445312 C 15.996094 9.476562 15.996094 9.519531 15.957031 9.558594 Z M 20.390625 6.398438 C 18.847656 6.398438 17.589844 5.144531 17.589844 3.601562 C 17.589844 2.054688 18.847656 0.800781 20.390625 0.800781 C 21.933594 0.800781 23.191406 2.054688 23.191406 3.601562 C 23.191406 5.144531 21.933594 6.398438 20.390625 6.398438 Z M 20.390625 6.398438"/>
</svg>

<svg xmlns="http://www.w3.org/2000/svg" width="32" height="32" viewBox="0 0 24 24">
    <path d="M20.39 0a3.604 3.604 0 0 0-3.597 3.602c0 .847.297 1.625.789 2.242l-2.508 2.508-.969-.223a1.29 1.29 0 0 0-1.21.348L.555 20.817c-.352.351-.547.82-.547 1.32 0 .496.195.965.547 1.316a1.86 1.86 0 0 0 2.636 0l13.332-13.328a.918.918 0 0 0-.441-1.54l-.09-.023 2.156-2.152c.614.492 1.395.79 2.243.79a3.602 3.602 0 0 0 3.601-3.598A3.605 3.605 0 0 0 20.391 0zM5.368 20.148l-.941-2.07.949-.95.941 2.071zm-1.554 1.555l-.942-2.07.95-.95.94 2.07zm-1.188 1.188a1.066 1.066 0 0 1-1.504-1.508l1.145-1.149.941 2.075zM15.957 9.559l-9.035 9.035-.942-2.07 7.48-7.485a.5.5 0 0 1 .466-.133l1.101.258c.051.024.106.035.164.035l.711.164c.055.012.075.051.086.082a.113.113 0 0 1-.031.114zm4.434-3.16a2.802 2.802 0 0 1-2.801-2.797C17.59 2.055 18.848.8 20.39.8c1.544 0 2.801 1.254 2.801 2.8a2.802 2.802 0 0 1-2.8 2.797zm0 0"/>
</svg>
